cssgg/color-bucket.svg

<svg
  width="24"
  height="24"
  viewBox="0 0 24 24"
  fill="none"
  xmlns="http://www.w3.org/2000/svg"
>
  <path
    fill-rule="evenodd"
    clip-rule="evenodd"
    d="M8.20348 2.00378C9.46407 2.00378 10.5067 3.10742 10.6786 4.54241L19.1622 13.0259L11.384 20.8041C10.2124 21.9757 8.31291 21.9757 7.14134 20.8041L2.8987 16.5615C1.72713 15.3899 1.72713 13.4904 2.8987 12.3188L5.70348 9.51404V4.96099C5.70348 3.32777 6.82277 2.00378 8.20348 2.00378ZM8.70348 4.96099V6.51404L7.70348 7.51404V4.96099C7.70348 4.63435 7.92734 4.36955 8.20348 4.36955C8.47963 4.36955 8.70348 4.63435 8.70348 4.96099ZM8.70348 10.8754V9.34247L4.31291 13.733C3.92239 14.1236 3.92239 14.7567 4.31291 15.1473L8.55555 19.3899C8.94608 19.7804 9.57924 19.7804 9.96977 19.3899L16.3337 13.0259L10.7035 7.39569V10.8754C10.7035 10.9184 10.7027 10.9612 10.7012 11.0038H8.69168C8.69941 10.9625 8.70348 10.9195 8.70348 10.8754Z"
    fill="currentColor"
  />
  <path
    d="M16.8586 16.8749C15.687 18.0465 15.687 19.946 16.8586 21.1175C18.0302 22.2891 19.9297 22.2891 21.1013 21.1175C22.2728 19.946 22.2728 18.0465 21.1013 16.8749L18.9799 14.7536L16.8586 16.8749Z"
    fill="currentColor"
  />
</svg>

<svg viewBox="0 0 24 24" xmlns="http://www.w3.org/2000/svg"><path fill-rule="evenodd" d="M8.2 2c1.26 0 2.3 1.1 2.47 2.53l8.48 8.48 -7.78 7.77c-1.18 1.17-3.08 1.17-4.25 0l-4.25-4.25c-1.18-1.18-1.18-3.08 0-4.25l2.8-2.81V4.91c0-1.64 1.11-2.96 2.5-2.96Zm.5 2.95V6.5l-1 1V4.94c0-.33.22-.6.5-.6 .27 0 .5.26.5.59Zm0 5.91V9.32l-4.4 4.39c-.4.39-.4 1.02 0 1.41l4.24 4.24c.39.39 1.02.39 1.41 0l6.36-6.37 -5.64-5.64v3.47c0 .04-.01.08-.01.12H8.65c0-.05.01-.09.01-.13Z"/><path d="M16.85 16.87c-1.18 1.17-1.18 3.07 0 4.24 1.17 1.17 3.07 1.17 4.24 0 1.17-1.18 1.17-3.08 0-4.25l-2.13-2.13 -2.13 2.12Z"/></svg>
